X: 27716
T: Morning Dew, The
R: reel
M: 4/4
K: Edorian
E3B BAFD|EBEB ADFA|E3B BAFD|BcdB ADFA|
E3B BAFD|EBEB ADFA|E3B BAFD|BcdB ADFA||
B2 eBgB eB|BcdB ADFA|B2 eBgB eB|dcdB ADFA|
B2 eBgB eB|BcdB ADFA|(3Bcd ef gfge|dcdB ADFA||
BAGF EFGA|B2 GB ADFA|BAGF EFGA|dcdB ADFA|
BAGF EFGA|BDGB ADFA|BAGF EFGA|dcdB ADFA||

